X:1
T:Tunbridge Walks. (p)1703.PLFD.516
L:1/4
Q:3/4=100
M:6/4
I:linebreak $
K:D
V:1 treble 
V:1
 A | F D B A2 d | c3 A B c | d c B A F D | E3 E2 A | F D B A2 d | c3 A B c | d A d c/d/ e c |$ %8
 d3 D2 :: E | C A, E A2 G | F D F B2 c | d c B B2 ^A | B3 c3 | d c B A G F | E/F/G/F/E/D/ C2 A |$ %16
 F D B A2 d | c3 A B c | d A d c/d/ e c | d3 D2 :| %20
